X: 18920
T: Independent, The
R: jig
M: 6/8
K: Gmajor
|:BA|GED GBd|egd ege|edB gdB|~A3 ABA|
GED GBd|egd ege|edB gdB|AGF G:|
Bd|g2a bag|e2d ege|edB gdB|~A3 ABd|
g2a bag|e2d ege|edB gdB|AGF GBd|
g2a bag|e2d ege|edB gdB|~A3 ABA|
GED GBd|egd ege|edB gdB|AGF G||

